**kern	**kern	**dynam
*part1	*part1	*part1
*staff2	*staff1	*
*I"Piano	*	*
*clefF4	*clefG2	*
*k[b-e-a-]	*k[b-e-a-]	*
=1	=1	=1
4AAA- 4AA-	4r	f
4A- 4e-	(8.a-L 8.cc-X	.
.	16b-Jk 16dd-X	.
=	=	=
4E- 4e-	4g) 4ee-	.
4r	4r	.
=	=	=
4AAA- 4AA-	4r	.
4A- 4e-	8.bnL 8.ee-	.
.	16dd-XJk 16ff	.
=	=	=
4E- 4e-	4g 4ee- 4gg	.
8E-`	8c` 8g	p <
8r	8r	.
=	=	=
8F`	8c` 8an	.
8r	8r	.
8G`	8f` 8bn	.
8r	8r	[
=	=	=
4AAA-^^ 4AA-	4A-^^	f
(8.BnL 8.d	(8.bnL 8.dd	.
16fJk)	16ffJk)	.
=	=	=
4c 4e-	4cc 4ee-	.
4r	4r	.
=	=	=
*-	*-	*-
!!!system-decoration: {(s1,s2)}
